status/32/battery-good.svg

<?xml version="1.0" encoding="UTF-8" standalone="no"?>
<svg
   xmlns:dc="http://purl.org/dc/elements/1.1/"
   xmlns:cc="http://creativecommons.org/ns#"
   xmlns:rdf="http://www.w3.org/1999/02/22-rdf-syntax-ns#"
   xmlns:svg="http://www.w3.org/2000/svg"
   xmlns="http://www.w3.org/2000/svg"
   xmlns:xlink="http://www.w3.org/1999/xlink"
   version="1.0"
   width="32"
   height="32"
   id="svg2485"
   viewBox="0 0 32 32">
  <metadata
     id="metadata71">
    <rdf:RDF>
      <cc:Work
         rdf:about="">
        <dc:format>image/svg+xml</dc:format>
        <dc:type
           rdf:resource="http://purl.org/dc/dcmitype/StillImage" />
        <dc:title />
      </cc:Work>
    </rdf:RDF>
  </metadata>
  <defs
     id="defs2487">
    <linearGradient
       id="linearGradient5126">
      <stop
         id="stop5128"
         style="stop-color:#ffffff;stop-opacity:1"
         offset="0" />
      <stop
         id="stop5130"
         style="stop-color:#ffffff;stop-opacity:0"
         offset="1" />
    </linearGradient>
    <linearGradient
       id="linearGradient5118">
      <stop
         id="stop5120"
         style="stop-color:#9d9d9d;stop-opacity:1"
         offset="0" />
      <stop
         id="stop5122"
         style="stop-color:#ffffff;stop-opacity:1"
         offset="1" />
    </linearGradient>
    <linearGradient
       id="linearGradient4762">
      <stop
         id="stop4764"
         style="stop-color:#ffffff;stop-opacity:1"
         offset="0" />
      <stop
         id="stop4766"
         style="stop-color:#ffffff;stop-opacity:0.23529412"
         offset="0.05034721" />
      <stop
         id="stop4768"
         style="stop-color:#ffffff;stop-opacity:0.15686275"
         offset="0.94965279" />
      <stop
         id="stop4770"
         style="stop-color:#ffffff;stop-opacity:0.39215687"
         offset="1" />
    </linearGradient>
    <linearGradient
       id="linearGradient2867-449-88-871-390-598-476-591-434-148-57-177-3-8-1">
      <stop
         id="stop3750-8-9-7"
         style="stop-color:#90dbec;stop-opacity:1"
         offset="0" />
      <stop
         id="stop3752-3-2-4"
         style="stop-color:#42baea;stop-opacity:1"
         offset="0.26238" />
      <stop
         id="stop3754-7-2-4"
         style="stop-color:#3689e6;stop-opacity:1"
         offset="0.704952" />
      <stop
         id="stop3756-9-3-7"
         style="stop-color:#2b63a0;stop-opacity:1"
         offset="1" />
    </linearGradient>
    <linearGradient
       x1="-5.0010252"
       y1="35"
       x2="46.68"
       y2="35"
       id="linearGradient4393"
       xlink:href="#linearGradient2867-449-88-871-390-598-476-591-434-148-57-177-3-8-1"
       gradientUnits="userSpaceOnUse"
       gradientTransform="matrix(0.55555556,0,0,0.92105266,2.666667,-11.486842)" />
    <linearGradient
       id="linearGradient3254-3-182-8-5">
      <stop
         id="stop4663-8-7"
         style="stop-color:#ffffff;stop-opacity:1"
         offset="0" />
      <stop
         id="stop4665-7-6"
         style="stop-color:#ffffff;stop-opacity:0"
         offset="1" />
    </linearGradient>
    <linearGradient
       x1="30"
       y1="7"
       x2="30"
       y2="43"
       id="linearGradient4760"
       xlink:href="#linearGradient4762"
       gradientUnits="userSpaceOnUse"
       gradientTransform="matrix(0.51999998,0,0,0.64864864,3.5200001,0.28378406)" />
    <linearGradient
       x1="-20.446733"
       y1="-93.091553"
       x2="-48.479328"
       y2="-93.091553"
       id="linearGradient3457-7-6"
       xlink:href="#linearGradient2793-2-0-669-94-2"
       gradientUnits="userSpaceOnUse"
       gradientTransform="matrix(0.12740271,0,0,0.15113872,19.319255,17.024284)"
       spreadMethod="reflect" />
    <linearGradient
       id="linearGradient2793-2-0-669-94-2">
      <stop
         id="stop4681-3-1"
         style="stop-color:#b4b4b4;stop-opacity:1"
         offset="0" />
      <stop
         id="stop4683-67-4"
         style="stop-color:#ffffff;stop-opacity:1"
         offset="1" />
    </linearGradient>
    <linearGradient
       x1="-17.12093"
       y1="-93.091553"
       x2="-45.761551"
       y2="-93.091553"
       id="linearGradient5066-8"
       xlink:href="#linearGradient5118"
       gradientUnits="userSpaceOnUse"
       gradientTransform="matrix(0.36855189,0,0,0.13359585,25.643284,15.699275)"
       spreadMethod="reflect" />
    <radialGradient
       cx="16.5"
       cy="7.5"
       r="3.5"
       fx="16.5"
       fy="7.5"
       id="radialGradient5132"
       xlink:href="#linearGradient5126"
       gradientUnits="userSpaceOnUse"
       gradientTransform="matrix(0.53450479,0,0,0.5901873,2.7689069,0.07629)" />
    <linearGradient
       id="linearGradient3820-7-2-1-2-6">
      <stop
         id="stop3822-2-6-3-3-7"
         style="stop-color:#3d3d3d;stop-opacity:1"
         offset="0" />
      <stop
         id="stop3864-8-7-7-9-1"
         style="stop-color:#686868;stop-opacity:0.49803922"
         offset="0.5" />
      <stop
         id="stop3824-1-2-5-0-3"
         style="stop-color:#686868;stop-opacity:0"
         offset="1" />
    </linearGradient>
    <radialGradient
       cx="99.157013"
       cy="186.17059"
       r="62.769119"
       fx="99.157013"
       fy="186.17059"
       id="radialGradient5362"
       xlink:href="#linearGradient3820-7-2-1-2-6"
       gradientUnits="userSpaceOnUse"
       gradientTransform="matrix(0.15931399,0,0,0.03982852,0.20289978,21.085354)" />
    <linearGradient
       x1="13.681819"
       y1="17.458462"
       x2="17.77273"
       y2="35.717499"
       id="linearGradient5508"
       xlink:href="#linearGradient3254-3-182-8-5"
       gradientUnits="userSpaceOnUse"
       gradientTransform="matrix(0.9777772,0,0,1.3941434,-2.3777703,-20.567459)" />
    <linearGradient
       x1="25.272734"
       y1="17.458462"
       x2="27.31819"
       y2="35.717499"
       id="linearGradient5510"
       xlink:href="#linearGradient3254-3-182-8-5"
       gradientUnits="userSpaceOnUse"
       gradientTransform="matrix(0.9777772,0,0,1.4146455,-5.7111039,-21.112568)" />
    <linearGradient
       id="linearGradient3821">
      <stop
         style="stop-color:#000000;stop-opacity:1;"
         offset="0"
         id="stop3823" />
      <stop
         style="stop-color:#000000;stop-opacity:0;"
         offset="1"
         id="stop3825" />
    </linearGradient>
    <linearGradient
       y2="25"
       x2="36.608757"
       y1="25"
       x1="12.029413"
       gradientTransform="matrix(0.60000002,0,0,0.66666667,-30.399999,-0.16666603)"
       gradientUnits="userSpaceOnUse"
       id="linearGradient3941"
       xlink:href="#linearGradient3821" />
  </defs>
  <rect
     width="15"
     height="26"
     rx="9"
     ry="1"
     x="-23.5"
     y="3.5"
     id="rect3268-4"
     style="color:#000000;display:block;overflow:visible;visibility:visible;opacity:0.1;fill:url(#linearGradient3941);fill-opacity:1;stroke:none;stroke-width:1;marker:none;enable-background:accumulate"
     transform="scale(-1,1)" />
  <path
     d="m 26,28.50025 a 10,2.5 0 0 1 -19.9999999,0 10,2.5 0 1 1 19.9999999,0 z"
     id="path3818-0-5"
     style="fill:url(#radialGradient5362);fill-opacity:1;stroke:none;stroke-width:1" />
  <rect
     width="15"
     height="17.5"
     rx="9.1800003"
     ry="1.0096155"
     x="8.5"
     y="12"
     id="rect3268-0-1"
     style="color:#000000;display:inline;overflow:visible;visibility:visible;fill:url(#linearGradient4393);fill-opacity:1;fill-rule:nonzero;stroke:none;stroke-width:1;marker:none;enable-background:accumulate" />
  <path
     d="m 23,13.028685 c 0,-0.569723 -3.122,-1.028379 -7,-1.028379 -3.878001,0 -7,0.458656 -7,1.028379"
     id="rect3268-0"
     style="color:#000000;display:inline;overflow:visible;visibility:visible;opacity:0.5;fill:#000000;fill-opacity:0;fill-rule:nonzero;stroke:#00537d;stroke-width:1;stroke-linecap:butt;stroke-linejoin:round;stroke-miterlimit:4;stroke-dasharray:none;stroke-dashoffset:0;stroke-opacity:1;marker:none;enable-background:accumulate" />
  <path
     d="M 15.999999,3.5 C 11.844999,3.5 8.5,4.0734287 8.5,4.7857145 V 6.5 c 0,-0.7122858 3.344999,-1.2857145 7.499999,-1.2857145 4.155001,0 7.5,0.5734287 7.5,1.2857145 V 4.7857145 C 23.499999,4.0734287 20.155,3.5 15.999999,3.5 Z"
     id="rect3268-6-4"
     style="color:#000000;display:inline;overflow:visible;visibility:visible;fill:url(#linearGradient5066-8);fill-opacity:1;fill-rule:nonzero;stroke:none;stroke-width:1;marker:none;enable-background:accumulate" />
  <path
     d="m 8.9411767,6.0260193 c 0,-0.5649851 3.1482353,-1.0198286 7.0588233,-1.0198286 3.910589,0 7.058823,0.4548435 7.058823,1.0198286"
     id="rect3268-6"
     style="color:#000000;display:block;overflow:visible;visibility:visible;opacity:0.3;fill:none;stroke:#000000;stroke-width:1;stroke-linecap:butt;stroke-linejoin:miter;stroke-miterlimit:7;stroke-dasharray:none;stroke-dashoffset:0;stroke-opacity:1;marker:none;enable-background:accumulate" />
  <path
     d="M 18.5,3.5 V 2.3181818 c 0,-0.4546401 -1.115,-0.8181819 -2.5,-0.8181819 -1.385,0 -2.5,0.3635418 -2.5,0.8181819 V 3.5"
     id="rect3268-3-9"
     style="color:#000000;display:inline;overflow:visible;visibility:visible;fill:url(#linearGradient3457-7-6);fill-opacity:1;fill-rule:nonzero;stroke:none;stroke-width:1;marker:none;enable-background:accumulate" />
  <path
     d="M 18.499999,2.9999999 V 2.1136363 c 0,-0.34098 -1.114999,-0.6136364 -2.5,-0.6136364 -1.385,0 -2.499999,0.2726564 -2.499999,0.6136364 v 0.8863636"
     id="rect3268-3"
     style="color:#000000;display:block;overflow:visible;visibility:visible;opacity:0.3;fill:none;stroke:#000000;stroke-width:0.99999988;stroke-linecap:butt;stroke-linejoin:miter;stroke-miterlimit:7;stroke-dasharray:none;stroke-dashoffset:0;stroke-opacity:1;marker:none;enable-background:accumulate" />
  <path
     d="m 16,4.4999999 c -1.929142,0 -3.667413,0.1119074 -4.907499,0.2837841 -0.620045,0.085943 -1.1206868,0.182088 -1.4300011,0.2837841 -0.085062,0.027963 -0.1108557,0.036885 -0.1625,0.060811 V 27.871622 c 0.051646,0.02393 0.077438,0.03284 0.1625,0.06081 0.3093143,0.101695 0.8099561,0.197845 1.4300011,0.283783 C 12.332587,28.388092 14.070858,28.5 16,28.5 c 1.929142,0 3.667413,-0.111908 4.907499,-0.283784 0.620045,-0.08594 1.120687,-0.182088 1.430001,-0.283783 0.08506,-0.02797 0.110855,-0.03689 0.1625,-0.06081 V 5.1283789 C 22.448355,5.1044535 22.422562,5.0955342 22.3375,5.0675681 22.028186,4.965872 21.527544,4.8697218 20.907499,4.783784 19.667413,4.6119073 17.929142,4.4999999 16,4.4999999 Z"
     id="path4752"
     style="color:#000000;display:block;overflow:visible;visibility:visible;opacity:0.8;fill:none;stroke:url(#linearGradient4760);stroke-width:0.99999982;stroke-linecap:butt;stroke-linejoin:miter;stroke-miterlimit:7;stroke-dasharray:none;stroke-dashoffset:0;stroke-opacity:1;marker:none;enable-background:accumulate" />
  <rect
     width="15"
     height="26"
     rx="9.1800003"
     ry="1"
     x="8.5"
     y="3.5"
     id="rect3268"
     style="color:#000000;display:block;overflow:visible;visibility:visible;opacity:0.3;fill:none;stroke:#000000;stroke-width:1;stroke-linecap:butt;stroke-linejoin:miter;stroke-miterlimit:7;stroke-dasharray:none;stroke-dashoffset:0;stroke-opacity:1;marker:none;enable-background:accumulate" />
  <path
     d="m 15,3.4999999 c -2.141789,0.08116 -3.004844,0.2414338 -4,0.4814808 V 29.018518 c 0.995156,0.240047 1.858211,0.40032 4,0.481481 z"
     id="path5194"
     style="display:inline;overflow:visible;visibility:visible;opacity:0.3;fill:url(#linearGradient5508);fill-opacity:1;fill-rule:nonzero;stroke:none;stroke-width:1;marker:none" />
  <path
     d="M 19,3.4999998 V 29.499999 c 0.757782,-0.08406 1.536192,-0.183863 2,-0.297386 V 3.7973848 C 20.536192,3.6838626 19.757782,3.5840522 19,3.4999998 Z"
     id="rect3244"
     style="display:inline;overflow:visible;visibility:visible;opacity:0.1;fill:url(#linearGradient5510);fill-opacity:1;fill-rule:nonzero;stroke:none;stroke-width:0.99999994;marker:none" />
  <path
     d="m 13.459003,4.502695 a 1.8707668,2.0656556 0 1 1 -3.7415337,0 1.8707669,2.0656556 0 1 1 3.7415337,0 z"
     id="path5124"
     style="color:#000000;display:inline;overflow:visible;visibility:visible;opacity:0.2;fill:url(#radialGradient5132);fill-opacity:1;fill-rule:nonzero;stroke:none;stroke-width:1.3700273;marker:none;enable-background:accumulate" />
  <path
     d="M 22.981918,13.795166 C 22.078868,13.334046 19.302622,13 16,13 12.708443,13 9.9397386,13.331812 9.0272201,13.790536"
     id="rect3268-0-7"
     style="color:#000000;display:block;overflow:visible;visibility:visible;opacity:0.2;fill:none;stroke:#ffffff;stroke-width:1;stroke-linecap:butt;stroke-linejoin:miter;stroke-miterlimit:7;stroke-dasharray:none;stroke-dashoffset:0;stroke-opacity:1;marker:none;enable-background:accumulate" />
</svg>

<svg xmlns="http://www.w3.org/2000/svg" xmlns:xlink="http://www.w3.org/1999/xlink" version="1" width="32" height="32" viewBox="0 0 32 32"><defs><linearGradient id="e"><stop offset="0" stop-color="#fff"/><stop offset="1" stop-color="#fff" stop-opacity="0"/></linearGradient><linearGradient id="d"><stop offset="0" stop-color="#9d9d9d"/><stop offset="1" stop-color="#fff"/></linearGradient><linearGradient id="b"><stop offset="0" stop-color="#fff"/><stop offset=".05" stop-color="#fff" stop-opacity=".235"/><stop offset=".95" stop-color="#fff" stop-opacity=".157"/><stop offset="1" stop-color="#fff" stop-opacity=".392"/></linearGradient><linearGradient id="a"><stop offset="0" stop-color="#90dbec"/><stop offset=".262" stop-color="#42baea"/><stop offset=".705" stop-color="#3689e6"/><stop offset="1" stop-color="#2b63a0"/></linearGradient><linearGradient x1="-5.001" y1="35" x2="46.68" y2="35" id="k" xlink:href="#a" gradientUnits="userSpaceOnUse" gradientTransform="matrix(.55556 0 0 .92105 2.667 -11.487)"/><linearGradient id="g"><stop offset="0" stop-color="#fff"/><stop offset="1" stop-color="#fff" stop-opacity="0"/></linearGradient><linearGradient x1="30" y1="7" x2="30" y2="43" id="n" xlink:href="#b" gradientUnits="userSpaceOnUse" gradientTransform="matrix(.52 0 0 .64865 3.52 .284)"/><linearGradient x1="-20.447" y1="-93.092" x2="-48.479" y2="-93.092" id="m" xlink:href="#c" gradientUnits="userSpaceOnUse" gradientTransform="matrix(.1274 0 0 .15114 19.32 17.024)" spreadMethod="reflect"/><linearGradient id="c"><stop offset="0" stop-color="#b4b4b4"/><stop offset="1" stop-color="#fff"/></linearGradient><linearGradient x1="-17.121" y1="-93.092" x2="-45.762" y2="-93.092" id="l" xlink:href="#d" gradientUnits="userSpaceOnUse" gradientTransform="matrix(.36855 0 0 .1336 25.643 15.7)" spreadMethod="reflect"/><radialGradient cx="16.5" cy="7.5" r="3.5" fx="16.5" fy="7.5" id="q" xlink:href="#e" gradientUnits="userSpaceOnUse" gradientTransform="matrix(.5345 0 0 .5902 2.77 .076)"/><linearGradient id="f"><stop offset="0" stop-color="#3d3d3d"/><stop offset=".5" stop-color="#686868" stop-opacity=".498"/><stop offset="1" stop-color="#686868" stop-opacity="0"/></linearGradient><radialGradient cx="99.157" cy="186.171" r="62.769" fx="99.157" fy="186.171" id="j" xlink:href="#f" gradientUnits="userSpaceOnUse" gradientTransform="matrix(.1593 0 0 .03983 .203 21.085)"/><linearGradient x1="13.682" y1="17.458" x2="17.773" y2="35.717" id="o" xlink:href="#g" gradientUnits="userSpaceOnUse" gradientTransform="matrix(.97778 0 0 1.39414 -2.378 -20.567)"/><linearGradient x1="25.273" y1="17.458" x2="27.318" y2="35.717" id="p" xlink:href="#g" gradientUnits="userSpaceOnUse" gradientTransform="matrix(.97778 0 0 1.41465 -5.71 -21.113)"/><linearGradient id="h"><stop offset="0"/><stop offset="1" stop-opacity="0"/></linearGradient><linearGradient y2="25" x2="36.609" y1="25" x1="12.029" gradientTransform="matrix(.6 0 0 .66667 -30.4 -.167)" gradientUnits="userSpaceOnUse" id="i" xlink:href="#h"/></defs><rect width="15" height="26" rx="9" ry="1" x="-23.5" y="3.5" transform="scale(-1 1)" color="#000" display="block" overflow="visible" opacity=".1" fill="url(#i)"/><path d="M26 28.5a10 2.5 0 0 1-20 0 10 2.5 0 1 1 20 0z" fill="url(#j)"/><rect width="15" height="17.5" rx="9.18" ry="1.01" x="8.5" y="12" color="#000" overflow="visible" fill="url(#k)"/><path d="M23 13.03c0-.57-3.122-1.03-7-1.03s-7 .46-7 1.03" color="#000" overflow="visible" opacity=".5" stroke="#00537d" stroke-linejoin="round" fill="none"/><path d="M16 3.5c-4.155 0-7.5.573-7.5 1.286V6.5c0-.712 3.345-1.286 7.5-1.286 4.155 0 7.5.574 7.5 1.286V4.786c0-.713-3.345-1.286-7.5-1.286z" color="#000" overflow="visible" fill="url(#l)"/><path d="M8.94 6.026c0-.565 3.15-1.02 7.06-1.02 3.91 0 7.06.455 7.06 1.02" color="#000" display="block" overflow="visible" opacity=".3" fill="none" stroke="#000" stroke-miterlimit="7"/><path d="M18.5 3.5V2.318c0-.454-1.115-.818-2.5-.818s-2.5.364-2.5.818V3.5" color="#000" overflow="visible" fill="url(#m)"/><path d="M18.5 3v-.886c0-.34-1.115-.614-2.5-.614s-2.5.273-2.5.614V3" color="#000" display="block" overflow="visible" opacity=".3" fill="none" stroke="#000" stroke-miterlimit="7"/><path d="M16 4.5c-1.93 0-3.667.112-4.907.284-.62.086-1.12.182-1.43.284a1.24 1.24 0 0 0-.163.06v22.744c.052.024.077.032.162.06.31.102.81.198 1.43.284 1.24.172 2.98.284 4.908.284 1.93 0 3.667-.112 4.907-.284.62-.086 1.12-.182 1.43-.284a1.29 1.29 0 0 0 .163-.06V5.128a1.242 1.242 0 0 0-.163-.06c-.31-.102-.81-.198-1.43-.284C19.667 4.612 17.93 4.5 16 4.5z" color="#000" display="block" overflow="visible" opacity=".8" fill="none" stroke="url(#n)" stroke-miterlimit="7"/><rect width="15" height="26" rx="9.18" ry="1" x="8.5" y="3.5" color="#000" display="block" overflow="visible" opacity=".3" fill="none" stroke="#000" stroke-miterlimit="7"/><path d="M15 3.5c-2.142.08-3.005.24-4 .48v25.04c.995.24 1.858.4 4 .48z" overflow="visible" opacity=".3" fill="url(#o)"/><path d="M19 3.5v26c.758-.084 1.536-.184 2-.297V3.797c-.464-.113-1.242-.213-2-.297z" overflow="visible" opacity=".1" fill="url(#p)"/><path d="M13.46 4.503a1.87 2.066 0 1 1-3.743 0 1.87 2.066 0 1 1 3.742 0z" color="#000" overflow="visible" opacity=".2" fill="url(#q)"/><path d="M22.982 13.795C22.08 13.335 19.302 13 16 13c-3.292 0-6.06.332-6.973.79" color="#000" display="block" overflow="visible" opacity=".2" fill="none" stroke="#fff" stroke-miterlimit="7"/></svg>
